X: 17
T:Scattery Island
T:Skattery Island
M:12/8
L:1/8
R:Slide
K:D
|:FGA d2d FGA d2d|e2A cBA e2A cBA|
FGA d2d FGA d2d|e2A cBA B2c d3:|
|:a3 f2e d3- def|g3 f3 e3- efg|
aba f2e d3- dcd|e2A cBA B2c d3:|

